!!!!SEGMENT: pl-kk--kk-i-382--090_anonim--offertorium-nro-31.krn
!!!cenid: 18xx:1592
!!!COM: Anonim
!!!COM-rismid: pe30004985
!!!CDT:
!!!CNT:
!!!OTL: Offertorium Nro 31
!!!PDT:
!!!AGN: Sacred
!!!SMS-siglum: PL-Kk
!!!SMS-shelfmark: Kk.I.382
!!!SMS-shelfwork: 076 W
!!!SMS-variant:
!!!SMS-altvar:
!!!NIFC-rismid: 1001142466
!!!URL-scan: http://repozytorium.nifc.pl/skany/pl-kk-nut--i-382
!!!ONB-nifc: UWAGA: obsada: S (T 1), A (B 1), T 2, B 2; S (T 1): skan 0053; A (B 1): skan 0198-0199; T 2: skan 0125-0126; B 2: skan 0274
!!!key:
**kern	**text	**kern	**text	**kern	**text	**kern	**text
*part4	*part4	*part3	*part3	*part2	*part2	*part1	*part1
*staff4	*staff4	*staff3	*staff3	*staff2	*staff2	*staff1	*staff1
*Ibass	*	*Itenor	*	*Ialto	*	*Itenor	*
*I"Basso II	*	*I"Tenore II	*	*I"Alto vel Basso I	*	*I"Soprano vel Tenore I.	*
*I'B 2	*	*I'T 2	*	*I'A (B 1)	*	*I'S (T 1)	*
*clefF4	*	*clefC4	*	*clefC3	*	*clefC1	*
*k[b-e-]	*	*k[b-e-]	*	*k[b-e-]	*	*k[b-e-]	*
*g:	*	*g:	*	*g:	*	*g:	*
*M3/4	*	*M3/4	*	*M3/4	*	*M3/4	*
=1	=1	=1	=1	=1	=1	=1	=1
!LO:TX:a:t=Nro. 31.	!	!LO:TX:t=P:problem=all\right&colon; global	!	!LO:TX:t=P:problem=all\right&colon; global	!	!LO:TX:a:t=Nro 31.	!
!LO:TX:t=P:problem=all\right&colon; global	!	!LO:TX:a:t=Nro 31.	!	!LO:TX:a:t=Nro. 31.	!	!LO:TX:t=P:problem=all\right&colon; global	!
!LO:TX:a:t=P:problem=napis "Nro. 31." na pięciolinii przed kluczem	!	!LO:TX:a:t=P:problem=napis "Nro 31." na pięciolinii przed kluczem	!	!LO:TX:a:t=P:problem=napis "Nro. 31." na pięciolinii przed kluczem	!	!LO:TX:a:t=P:problem=napis "Nro 31." na pięciolinii przed kluczem	!
4G\	In-	4B-\	In-	4d\	In-	4g\	In-
4G\	-su-	4c\	-su-	4e-\	-su-	4g\	-su-
4D\	-re-	4A\	-re-	4f#X\	-re-	4cc\	-re-
=2	=2	=2	=2	=2	=2	=2	=2
*2\right	*	*2\right	*	*2\right	*	*2\right	*
8BB-/L	-xe-	2B-\	-xe-	2g\	-xe-	2dd\	-xe-
8GG/	.	.	.	.	.	.	.
8BB-/	.	.	.	.	.	.	.
8D/J	.	.	.	.	.	.	.
4G\	-runt	4B-\	-runt	4d\	-runt	4dd\	-runt
=3	=3	=3	=3	=3	=3	=3	=3
4F#X\	in	4c\	in	4e-X\	in	4a\	in
4G\	me	4B-\	me	4d\	me	4g\	me
4r	.	4r	.	4r	.	4r	.
=4	=4	=4	=4	=4	=4	=4	=4
4G\	vi-	4d\	vi-	4g\	vi-	4b-\	vi-
4A\	-ri	4c\	-ri	4f#X\	-ri	4a\	-ri
(>8B-\L	i-	4B-\	i-	4g\	i-	4g\	i-
8c\J)	.	.	.	.	.	.	.
=5	=5	=5	=5	=5	=5	=5	=5
4d\	-ni-	4B-\	-ni-	4g\	-ni-	4dd\	-ni-
4D\	-qui	4A\	-qui	4f#X\	-qui	4dd\	-qui
!	!	!	!	!	!	!LO:TX:b:i:t=V&colon; S&colon;	!
!	!	!	!	!	!	!LO:TX:a:t=P:problem=napis na pięciolinii za kreską	!
4r	.	4r	.	4r	.	4r	.
!LO:LB:g=original	!	!	!	!LO:LB:g=original	!	!LO:PB:g=original	!
=6	=6	=6	=6	=6	=6	=6	=6
4G\	in-	4B-\	In-	4d\	in-	4g\	in-
4G\	-su-	4c\	-su-	4e-X\	-su-	4g\	-su-
4D\	-re-	4A\	-re-	4f#X\	-re-	4cc\	-re-
!	!	!LO:LB:g=original	!	!	!	!	!
=7	=7	=7	=7	=7	=7	=7	=7
8BB-/L	-xe-	2B-\	-xe-	2g\	-xe-	2dd\	-xe-
8GG/	.	.	.	.	.	.	.
8BB-/	.	.	.	.	.	.	.
8D/J	.	.	.	.	.	.	.
4G\	-runt	4B-\	-runt	4d\	-runt	4dd\	-runt
=8	=8	=8	=8	=8	=8	=8	=8
4F#X\	in	4c\	in	4e-X\	in	4a\	in
4G\	me	4B-\	me	4d\	me	4g\	me
4r	.	4r	.	4r	.	4r	.
=9	=9	=9	=9	=9	=9	=9	=9
4G\	vi-	4d\	vi-	4g\	vi-	4b-\	vi-
4A\	-ri	4c\	-ri	4f#X\	-ri	4a\	-ri
(>8B-\L	i-	4B-\	i-	4g\	i-	4g\	i-
8c\J)	.	.	.	.	.	.	.
=10	=10	=10	=10	=10	=10	=10	=10
4d\	-ni-	4B-\	-ni-	4g\	-ni-	4dd\	-ni-
4D\	-qui	4A\	-qui	4f#X\	-qui,	4dd\	-qui
!	!	!	!	!LO:TX:b:i:t=V&colon; S&colon;	!	!	!
!	!	!	!	!LO:TX:a:t=P:problem=napis na pięciolinii za kreską	!	!	!
4r	.	4r	.	4r	.	4r	.
!	!	!	!	!LO:PB:g=original	!	!	!
=11	=11	=11	=11	=11	=11	=11	=11
!LO:TX:t=P:problem=mixed beam	!	!	!	!	!	!	!
8B-\L	ab-	4d\	abs-	4fn\	abs-	4b-\	abs-
8BB-/J	.	.	.	.	.	.	.
(>8D\L	-sque	4d\	-que	4f\	-que	4b-\	-que
8F\J)	.	.	.	.	.	.	.
(>8B-\L	mi-	4d\	mi-	4f\	mi-	4b-\	mi-
8d\J)	.	.	.	.	.	.	.
!LO:LB:g=original	!	!	!	!	!	!LO:LB:g=original	!
=12	=12	=12	=12	=12	=12	=12	=12
(>4c\	-se-	(>4A\	-se-	2f\	-se-	(>4ee-\	-se-
4A\)	.	4c\)	.	.	.	4cc\)	.
4B-\	-ri-	4B-\	-ri-	4f\	-ri-	4dd\	-ri-
=13	=13	=13	=13	=13	=13	=13	=13
4.F\	-cor-	4.B-\	-cor-	4.d\	-cor-	4.dd\	-cor-
8E-\	-di-	8A\	-di-	8e-\	-di-	8cc\	-di-
4D\	-a	4B-\	-a	4f\	-a	4b-\	-a
!	!	!LO:LB:g=original	!	!	!	!	!
=14	=14	=14	=14	=14	=14	=14	=14
(>8BB-\L	que-	2B-\	que-	2f\	que-	2dd\	que-
8D\	.	.	.	.	.	.	.
8F\)	.	.	.	.	.	.	.
8B-\J	.	.	.	.	.	.	.
(>8F\L	-si-	4B-\	-si-	4f\	-si-	4dd\	-si-
8D\J)	.	.	.	.	.	.	.
=15	=15	=15	=15	=15	=15	=15	=15
(>8En\L	-e-	4B-\	-e-	4g\	-e-	4cc\	-e-
8C\J)	.	.	.	.	.	.	.
(>8D\L	-runt	4B-\	-runt	4g\	-runt	4cc\	-runt
8E\J)	.	.	.	.	.	.	.
4F\	me	4A\	me	4f\	me	4cc\	me
=16	=16	=16	=16	=16	=16	=16	=16
8BB-/	in-	8G/	in-	8g\	in-	8dd\	in-
8BB-/	-ter-	8G/	-ter-	8g\	-ter-	8dd\	-ter-
!	!	!	!	!LO:LB:g=original	!	!	!
4.C/	-fi-	4.A/	-fi-	4.f\	-fi-	4.cc\	-fi-
8C/	-ce-	8G/	-ce-	8en\	-ce-	8cc\	-ce-
=17	=17	=17	=17	=17	=17	=17	=17
2F\	-re	2A\	-re	2f\	-re	2cc\	-re
4r	.	4r	.	4r	.	4r	.
!LO:LB:g=original	!	!	!	!	!	!LO:LB:g=original	!
=18	=18	=18	=18	=18	=18	=18	=18
4F\	et	4c\	et	4f\	et	4a\	et
4B-\	non	4d\	non	4f\	non	4b-\	non
8A\	pe-	8c\	pe-	8f\	pe-	8a\	pe-
8F\	-per-	8e-\	-per-	8f\	-per-	8cc\	-per-
!	!	!LO:LB:g=original	!	!	!	!	!
=19	=19	=19	=19	=19	=19	=19	=19
4B-\	-ce-	4d\	-ce-	4f\	-ce-	4b-\	-ce-
4F\	-runt	4c\	-runt	4f\	-runt	4a\	-runt
4r	.	4r	.	4r	.	4r	.
=20	=20	=20	=20	=20	=20	=20	=20
4F\	et	4c\	et	4f\	et	4a\	et
4B-\	non	4d\	non	4f\	non	4b-\	non
8A\	pe-	8c\	pe-	8f\	pe-	8a\	pe-
8F\	-per-	8e-\	-per-	8f\	-per-	8cc\	-per-
!	!	!	!	!LO:LB:g=original	!	!	!
=21	=21	=21	=21	=21	=21	=21	=21
4B-\	-ce-	4d\	-ce-	4f\	-ce-	4b-\	-ce-
4F\	-runt	4c\	-runt	4f\	-runt	4a\	-runt
4F#X\	in	4c\	in	4d\	in	4a\	in
=22	=22	=22	=22	=22	=22	=22	=22
(>8A\L	fa-	(>8A\L	fa-	2d\	fa-	8cc\L	fa-
8F#X\J)	.	8c\J)	.	.	.	8a\	.
(>8D\L	-ci-	(>8A\L	-ci-	.	.	8f#X\	.
8F#\J)	.	8c\J)	.	.	.	8a\J	.
(>8A\L	-em	(>8A\L	-em	8d\	-ci-	8cc\	-ci-
8F#\J)	.	8c\J)	.	8d\	-em	8a\	-em
!LO:LB:g=original	!	!	!	!	!	!LO:LB:g=original	!
=23	=23	=23	=23	=23	=23	=23	=23
(>8G\L	me-	2d\	me-	8g\L	me-	(>8b-\L	me-
8F#X\	.	.	.	8a\	.	8a\	.
8G\)	.	.	.	8g\	.	8b-\)	.
8A\J	.	.	.	8f#X\J	.	8cc\J	.
(>8B-\L	-am	(>8c\L	-am	(>8g\L	-am	(>8dd\L	-am
8c\J)	.	8B-\J)	.	8a\J)	.	8ee-\J)	.
!	!	!LO:LB:g=original	!	!	!	!	!
=24	=24	=24	=24	=24	=24	=24	=24
4.d\	spu-	4.A\	spu-	4.f#X\	spu-	4.dd\	spu-
8D\	-e-	8A\	-e-	8f#\	-e-	8dd\	-e-
4D\	-re	4A\	-re	4f#\	-re	4dd\	-re
=25	=25	=25	=25	=25	=25	=25	=25
4D\	lan-	4A\	lan-	2f#X\	lan-	2cc\	Lan-
4F#X\	-ce-	4c\	-ce-	.	.	.	.
4D\	-is	4A\	-is	8f#\	-ce-	8cc\	-ce-
.	.	.	.	8f#\	-is	8cc\	-is
!	!	!	!	!LO:LB:g=original	!	!	!
=26	=26	=26	=26	=26	=26	=26	=26
4G\	su-	4B-\	su-	4d\	su-	4b-\	su-
4GG/	-is	4B-\	-is	4d\	-is	4g\	-is
4G\	vul-	4B-\	vul-	4d\	vul-	4b-\	vul-
=27	=27	=27	=27	=27	=27	=27	=27
4G\	-ne-	4B-\	-ne-	4d\	-ne-	4g\	-ne-
4F#X\	-ra-	4A\	-ra-	4d\	-ra-	4a\	-ra-
8G\	-ve-	8B-\	-ve-	8d\	-ve-	8g\	-ve-
8G\	-runt	8B-\	-runt	8d\	-runt	8g\	-runt
!	!	!	!	!	!	!LO:LB:g=original	!
=28	=28	=28	=28	=28	=28	=28	=28
2D\	me	2A\	me	2f#X\	me	2a\	me
4r	.	4r	.	4r	.	4r	.
!LO:LB:g=original	!	!LO:LB:g=original	!	!	!	!	!
=29	=29	=29	=29	=29	=29	=29	=29
4D\	lan-	4A\	lan-	2f#X\	lan-	2cc\	lan-
4F#X\	-ce-	4c\	-ce-	.	.	.	.
4D\	-is	4A\	-is	8f#\	-ce-	8cc\	-ce-
.	.	.	.	8f#\	-is	8cc\	-is
=30	=30	=30	=30	=30	=30	=30	=30
4G\	su-	4B-\	su-	4d\	su-	4b-\	su-
4GG/	-is	4B-\	-is	4d\	-is	4g\	-is
4G\	vul-	4B-\	vul-	4d\	vul-	4b-\	vul-
!	!	!	!	!LO:LB:g=original	!	!	!
=31	=31	=31	=31	=31	=31	=31	=31
4G\	-ne-	4B-\	-ne-	4d\	-ne-	4g\	-ne-
4F#X\	-ra-	4A\	-ra-	4d\	-ra-	4a\	-ra-
8G\	-ve-	8B-\	-ve-	8d\	-ve-	8g\	-ve-
8G\	-runt	8B-\	-runt	8d\	-runt	8g\	-runt
=32	=32	=32	=32	=32	=32	=32	=32
2D\	me	2A\	me,	2f#X\	me	2a\	me
!	!	!LO:TX:b:i:t=V&colon; S&colon;	!	!	!	!	!
!	!	!LO:TX:a:t=P:problem=napis na pięciolinii za kreską	!	!	!	!	!
4r	.	4r	.	4r	.	4r	.
!	!	!LO:PB:g=original	!	!	!	!	!
=33	=33	=33	=33	=33	=33	=33	=33
8A\L	et	(>8c\L	et	8f#X\L	et	2dd\	et
(>8G\	.	8B-\	.	(>8g\	.	.	.
8F#X\)	.	8A\)	.	8a\	.	.	.
8A\J	.	8c\J	.	8f#\J)	.	.	.
(>8F#\L	con-	(<8A/L	con-	(>8a\L	con-	4dd\	con-
8D\J)	.	8F#X/J)	.	8f#\J)	.	.	.
!	!	!	!	!	!	!LO:LB:g=original	!
=34	=34	=34	=34	=34	=34	=34	=34
4G\	-cu-	4B-\	-cus-	4g\	-cu-	4dd\	-cus-
4A\	-sa	4c\	-sa	4f#X\	-sa	4cc\	-sa
4B-\	sunt	4d\	sunt	4g\	sunt	4b-\	sunt
!LO:LB:g=original	!	!	!	!	!	!	!
=35	=35	=35	=35	=35	=35	=35	=35
(>8c\L	om-	(>8e-\L	om-	2f#X\	Om-	(>8a\L	om-
8B-\J)	.	8d\J)	.	.	.	8b-\J)	.
(>8A\L	-ni-	(>8c\L	-ni-	.	.	(>8cc\L	-ni-
8G\J)	.	8B-\J)	.	.	.	8b-\J)	.
(>8F#X\L	-a	(<8A/L	-a	8d\	-ni-	(>8a\L	-a
8G\J)	.	8G/J)	.	8d\	-a	8b-\J)	.
!	!	!	!	!LO:LB:g=original	!	!	!
=36	=36	=36	=36	=36	=36	=36	=36
(<4D/	o-	(<4G/	o-	(>4g\	O-	(>4b-\	o-
4C/)	.	4A/)	.	4f#X\)	.	4a\)	.
4BB-/	-sa	4B-/	-sa	4g\	-sa	4g\	-sa
=37	=37	=37	=37	=37	=37	=37	=37
(<4C/	me-	(>4e-\	me-	(>4g\	me-	(>4g\	me-
2D/)	.	2d\)	.	2f#X\)	.	2a\)	.
=38	=38	=38	=38	=38	=38	=38	=38
2GG/	-a,	2d\	-a,	2g\	-a,	2b-\	-a
4r	.	4r	.	4r	.	4r	.
=39	=39	=39	=39	=39	=39	=39	=39
8A\L	et	(>8c\L	et	8f#X\L	et	2dd\	et
(>8G\	.	8B-\	.	(>8g\	.	.	.
8F#X\)	.	8A\)	.	8a\	.	.	.
8A\J	.	8c\J	.	8f#\J)	.	.	.
(>8F#\L	son-	(<8A/L	con-	(>8a\L	con-	4dd\	con-
8D\J)	.	8F#X/J)	.	8f#\J)	.	.	.
!	!	!LO:LB:g=original	!	!	!	!LO:LB:g=original	!
=40	=40	=40	=40	=40	=40	=40	=40
4G\	-cu-	4B-\	-cu-	4g\	-cu-	4dd\	-cus-
4A\	-sa	4c\	-sa	4f#X\	-sa	4cc\	-sa
4B-\	sunt	4d\	sunt	4g\	sunt	4b-\	sunt
=41	=41	=41	=41	=41	=41	=41	=41
(>8c\L	om-	(>8e-\L	om-	2f#X\	om-	(>8a\L	om-
8B-\J)	.	8d\J)	.	.	.	8b-\J)	.
(>8A\L	-ni-	(>8c\L	-ni-	.	.	(>8cc\L	-ni-
8G\J)	.	8B-\J)	.	.	.	8b-\J)	.
(>8F#X\L	-a	(>8A\L	-a	8d\	-ni-	(>8a\L	-a
8G\J)	.	8G\J)	.	8d\	-a	8b-\J)	.
!LO:LB:g=original	!	!	!	!LO:LB:g=original	!	!	!
=42	=42	=42	=42	=42	=42	=42	=42
(<4D/	o-	(<4G/	o-	(>4g\	O-	(>4b-\	o-
4C/)	.	4A/)	.	4f#X\)	.	4a\)	.
4BB-/	-sa	4B-\	-sa	4g\	-sa	4g\	-sa
=43	=43	=43	=43	=43	=43	=43	=43
(<4C/	me-	(>4e-\	me-	4g\	me-	(>4g\	me-
2D/)	.	2d\)	.	2f#X\	.	2a\)	.
=44	=44	=44	=44	=44	=44	=44	=44
!	!	!LO:TX:b:t=1836.:problem=dopisane ołówkiem na pięciolinii za kreską	!	!	!	!	!
2.GG/	-a.	2.d\	-a.	2.g\	-a.	2.b-\	-a.
==	==	==	==	==	==	==	==
*-	*-	*-	*-	*-	*-	*-	*-
!!!system-decoration: [(s1,s2,s3,s4)]
!!!RDF**kern: > = above
!!!RDF**kern: < = below
!!!EED: Mateusz Mrugas
!!!EST: 2021-02-12
!!!AIN: 1 alto 1 bass 2 tenor
!!!ENC: Mateusz Solarz
!!!END: 2021-02-01
